dist/assets/images/icons/credit-card.svg

<svg width="14" height="14" viewBox="0 0 14 14" fill="none" xmlns="http://www.w3.org/2000/svg">
<path d="M0 3.5C0 3.03587 0.184374 2.59075 0.512563 2.26256C0.840752 1.93437 1.28587 1.75 1.75 1.75H12.25C12.7141 1.75 13.1592 1.93437 13.4874 2.26256C13.8156 2.59075 14 3.03587 14 3.5V10.5C14 10.9641 13.8156 11.4092 13.4874 11.7374C13.1592 12.0656 12.7141 12.25 12.25 12.25H1.75C1.28587 12.25 0.840752 12.0656 0.512563 11.7374C0.184374 11.4092 0 10.9641 0 10.5V3.5ZM1.75 2.625C1.51794 2.625 1.29538 2.71719 1.13128 2.88128C0.967187 3.04538 0.875 3.26794 0.875 3.5V4.375H13.125V3.5C13.125 3.26794 13.0328 3.04538 12.8687 2.88128C12.7046 2.71719 12.4821 2.625 12.25 2.625H1.75ZM13.125 6.125H0.875V10.5C0.875 10.7321 0.967187 10.9546 1.13128 11.1187C1.29538 11.2828 1.51794 11.375 1.75 11.375H12.25C12.4821 11.375 12.7046 11.2828 12.8687 11.1187C13.0328 10.9546 13.125 10.7321 13.125 10.5V6.125Z" fill="white"/>
<path d="M1.75 8.75C1.75 8.51794 1.84219 8.29538 2.00628 8.13128C2.17038 7.96719 2.39294 7.875 2.625 7.875H3.5C3.73206 7.875 3.95462 7.96719 4.11872 8.13128C4.28281 8.29538 4.375 8.51794 4.375 8.75V9.625C4.375 9.85706 4.28281 10.0796 4.11872 10.2437C3.95462 10.4078 3.73206 10.5 3.5 10.5H2.625C2.39294 10.5 2.17038 10.4078 2.00628 10.2437C1.84219 10.0796 1.75 9.85706 1.75 9.625V8.75Z" fill="white"/>
</svg>

<svg width="14" height="14" fill="none" xmlns="http://www.w3.org/2000/svg"><path d="M0 3.5a1.75 1.75 0 011.75-1.75h10.5A1.75 1.75 0 0114 3.5v7a1.75 1.75 0 01-1.75 1.75H1.75A1.75 1.75 0 010 10.5v-7zm1.75-.875a.875.875 0 00-.875.875v.875h12.25V3.5a.875.875 0 00-.875-.875H1.75zm11.375 3.5H.875V10.5a.875.875 0 00.875.875h10.5a.875.875 0 00.875-.875V6.125z" fill="#fff"/><path d="M1.75 8.75a.875.875 0 01.875-.875H3.5a.875.875 0 01.875.875v.875a.875.875 0 01-.875.875h-.875a.875.875 0 01-.875-.875V8.75z" fill="#fff"/></svg>
